dist/svg/key-reset-o.svg

<!-- Generated by Trend Micro Style Portal -->
<svg version="1.1" xmlns="http://www.w3.org/2000/svg" width="16" height="16" viewBox="0 0 16 16">
  <title>key-reset-o</title>
  <path fill="rgb(34,34,34)" d="M15.851 15.805c-0.497 0.124-1.067 0.195-1.654 0.195-0.004 0-0.008 0-0.012-0h0.001c-1.982-0.010-3.774-0.819-5.071-2.121l-0-0-2.115 2.122v-6h6l-1.928 1.921c0.944 1.922 2.658 3.343 4.729 3.873l0.050 0.011zM12.5 2c-0.828 0-1.5 0.672-1.5 1.5s0.672 1.5 1.5 1.5c0.828 0 1.5-0.672 1.5-1.5v0c0-0.828-0.672-1.5-1.5-1.5v0zM12.5 4c-0.276 0-0.5-0.224-0.5-0.5s0.224-0.5 0.5-0.5c0.276 0 0.5 0.224 0.5 0.5v0c-0 0.276-0.224 0.5-0.5 0.5h-0zM14 0h-5c-1.105 0-2 0.895-2 2v0 4l-2 2h-2v2h-2v2l-1 1v3h3l3-3v-1.414l-3.414 3.414h-1.586v-1.586l1-1v-1.414h2v-2h1.414l2.586-2.586v-4.414c0.001-0.552 0.448-0.999 1-1h5c0.552 0.001 0.999 0.448 1 1v5c-0.001 0.552-0.448 0.999-1 1h-4.414l-0.293 0.293-0.685 0.707h5.392c1.105 0 2-0.895 2-2v0-5c0-1.105-0.895-2-2-2v0z"></path>
</svg>

<svg width="16" height="16" viewBox="0 0 16 16" fill="rgb(34, 34, 34)" xmlns="http://www.w3.org/2000/svg"><title>key-reset-o</title><path d="M15.851 15.805C15.354 15.929 14.784 16 14.197 16C14.193 16 14.189 16 14.185 16C12.203 15.99 10.412 15.181 9.115 13.879L7 16.001V10.001H13L11.072 11.922C12.016 13.844 13.73 15.265 15.801 15.795L15.851 15.805ZM12.5 2C11.672 2 11 2.672 11 3.5C11 4.328 11.672 5 12.5 5C13.328 5 14 4.328 14 3.5C14 2.672 13.328 2 12.5 2ZM12.5 4C12.224 4 12 3.776 12 3.5C12 3.224 12.224 3 12.5 3C12.776 3 13 3.224 13 3.5C13 3.776 12.776 4 12.5 4ZM14 0H9C7.895 0 7 0.895 7 2V6L5 8H3V10H1V12L0 13V16H3L6 13V11.586L2.586 15H1V13.414L2 12.414V11H4V9H5.414L8 6.414V2C8.001 1.448 8.448 1.001 9 1H14C14.552 1.001 14.999 1.448 15 2V7C14.999 7.552 14.552 7.999 14 8H9.586L9.293 8.293L8.608 9H14C15.105 9 16 8.105 16 7V2C16 0.895 15.105 0 14 0Z" fill="rgb(34, 34, 34)" fill-opacity="1.00"/></svg>
